X: 1
T:Barney Brallagan's -- Jig
M:9/8
L:1/8
R:slip jig
B:Ryan's Mammoth Collection
N:87 449
Z:Contributed by Ray Davies,  ray:davies99.freeserve.co.uk
K:D
vF2A ABA ABA | F2A ABc def | F2A ABA ABA | Bcd efd cBA |
F2A ABA ABA | F2A ABc def | F2A ABA ABA | Bcd efd cBA |]
|:f2a f2a gfe | f2a f2a g2e | f2a f2a gfe | cde efd cBA :|
|:f2z a2z d2z | g2f e2d cBA | f2z e2z d2z | B2B A2G FED "_D.C.":|
